icons/relative-to-ground-elevation-24.svg

<svg xmlns="http://www.w3.org/2000/svg" viewBox="0 0 24 24"><path fill="none" d="M0 0h24v24H0z"/><path d="M13 18h-1v-2h1zm-1 3h1v-2h-1zm1-8h-1v2h1zm0-3h-1v2h1zm-2.9-3.5a2.4 2.4 0 1 1 2.4 2.4 2.403 2.403 0 0 1-2.4-2.4zm.9 0A1.5 1.5 0 1 0 12.5 5 1.502 1.502 0 0 0 11 6.5zM2 22v-2h2v-1H2v-2h2v-1H2v-2h2v-1H2v-2h2v-1H2V8h2V7H2V5h2V4H2V2H1v21h22v-1z"/></svg>

<svg id="icons" xmlns="http://www.w3.org/2000/svg" viewBox="0 0 24 24"><defs><style>.cls-1{fill:none;}</style></defs><rect class="cls-1" width="24" height="24"/><path d="M13,18H12V16h1Zm-1,3h1V19H12Zm1-8H12v2h1Zm0-3H12v2h1ZM10.1,6.5a2.4,2.4,0,1,1,2.4,2.4A2.40256,2.40256,0,0,1,10.1,6.5Zm.9,0A1.5,1.5,0,1,0,12.5,5,1.50164,1.50164,0,0,0,11,6.5ZM2,22V20H4V19H2V17H4V16H2V14H4V13H2V11H4V10H2V8H4V7H2V5H4V4H2V2H1V23H23V22Z"/></svg>
